src/topics/icons/saucelabs.svg

<svg height="284" preserveAspectRatio="xMidYMid" viewBox="0 0 256 284" width="256" xmlns="http://www.w3.org/2000/svg"><path d="m255.663.035-255.574-.035-.089 162.68h44.179c36.381.709 32.997 25.413 36.186 47.936 3.243 22.896 25.129 34.113 43.506 34.113 24.048 0 43.062-20.627 43.062-45.189 0-18.961-8.683-32.607-46.075-48.556-42.406-17.898-53.11-43.168-53.11-67.765 0-40.227 30.746-67.164 66.454-67.164 18.732 0 39.129 5.99 52.951 21.567 11.165 12.582 15.187 25.288 14.744 40.971-.177 6.876-.992 15.684 12.937 15.879l40.829.088zm.337 117.279-38.526-.142s-40.759 3.19-38.455-28.07c1.064-15.063-3.367-26.546-6.486-31.366-8.116-12.582-21.673-18.856-38.029-18.856-24.048 0-41.716 20.025-41.716 40.989 0 18.253 8.861 38.686 46.607 53.306 32.731 12.635 53.092 34.627 53.092 65.214 0 32.217-24.49 69.821-68.581 69.821-22.683 0-43.239-5.405-58.976-27.929-8.01-11.465-11.093-26.227-11.625-41.006-.443-11.342-3.438-13.823-11.217-13.823l-41.999.124v97.963h255.769v-164.807l.124-1.418z" fill="#2e383f"/></svg>

<?xml version="1.0" encoding="UTF-8" standalone="no"?>
<svg width="256px" height="284px" viewBox="0 0 256 284" version="1.1" xmlns="http://www.w3.org/2000/svg" xmlns:xlink="http://www.w3.org/1999/xlink" preserveAspectRatio="xMidYMid">
    <g>
        <path d="M255.663,0.035 L0.089,0 L0,162.68 L44.179,162.68 C80.56,163.389 77.176,188.093 80.365,210.616 C83.608,233.512 105.494,244.729 123.871,244.729 C147.919,244.729 166.933,224.102 166.933,199.54 C166.933,180.579 158.25,166.933 120.858,150.984 C78.452,133.086 67.748,107.816 67.748,83.219 C67.748,42.992 98.494,16.055 134.202,16.055 C152.934,16.055 173.331,22.045 187.153,37.622 C198.318,50.204 202.34,62.91 201.897,78.593 C201.72,85.469 200.905,94.277 214.834,94.472 L255.663,94.56 L255.663,0.035 Z M256,117.314 L217.474,117.172 C217.474,117.172 176.715,120.362 179.019,89.102 C180.083,74.039 175.652,62.556 172.533,57.736 C164.417,45.154 150.86,38.88 134.504,38.88 C110.456,38.88 92.788,58.905 92.788,79.869 C92.788,98.122 101.649,118.555 139.395,133.175 C172.126,145.81 192.487,167.802 192.487,198.389 C192.487,230.606 167.997,268.21 123.906,268.21 C101.223,268.21 80.667,262.805 64.93,240.281 C56.92,228.816 53.837,214.054 53.305,199.275 C52.862,187.933 49.867,185.452 42.088,185.452 L0.089,185.576 L0.089,283.539 L255.858,283.539 L255.858,118.732 L255.982,117.314 L256,117.314 Z" fill="#2E383F"></path>
    </g>
</svg>
